X: 31
M: 6/8
L: 1/8
K: A
|:\
vMA3 uMA3 | (BFB) (Bcd) | A3 A3 | f(^df) e(ce) |\
|:\
efg {ag}a2f | g2B (Bcd) | e3 aec | efg {ag}aec |\
efg ({ag}agf) | a2B Bcd | ece (dcB) | A3 A3 :|
(This is "scordatura" notation for AEAE tuning.  The low F#s are actually G#s.)


